X: 4291
T: Miss Forbes of Pitsligo's    Strathspey
C: by John Gow
%R: strathspey
B: Niel Gow & Sons "A Fourth Collection of Strathspey Reels, etc." v.4 p.29 #1 (top 8 staffs continued from p.28)
Z: 2022 John Chambers <jc:trillian.mit.edu>
M: C
L: 1/8
K: F
% - - - - - - - - - -
% Voice 1 not reformatted, but maybe you should.
V: 1 staves=2
F !segno!|\
(CF)(.A.F) cFAF | (CFA).f d/c/B/A/ G2 |\
C>FAd cFAa | Tf>c (d/c/).B/.A/ TG2FA ||\
(CF)(.A.F) cFAF |
(CFA).f d/c/B/A/ G2 |\
C>FAd cFAa | f>c (d/c/).B/.A/ TG2 F |]|\
(c//d//e/) | f>c (f/e/).d/.c/ fc-c>a |\
f<dTc>A Gg-g>a | f>c (f/e/).d/.c/
fcc>a | f>d {d}c>A TG2 F (c//d//e/) ||\
f>c (f/e/).d/.c/ fcca/g/ | f>d {d}c>A Gg-g>a |\
Tf>cd<b c<aB<g | A>f {d}cB/A/ TG2 F2 !segno!|]
% - - - - - - - - - -
% Voice 2 preserves the staff layout in the book.
V: 2 clef=bass middle=d
z !segno! |\
F2f2 f2f2 | A2F2 B2c2 | A2F2 f2f2 | a2b2 c'2f2 || F2f2 f2f2 |
A2F2 B2c2 | A2F2 f2f2 | a2b2 c'2f |]| z | f2f2 f2f2 | f2f2 e2c2 | f2f2
f2f2 | B2A2 c2Fz || f2f2 f2f2 | f2f2 e2c2 | f2b2 a2g2 | f2B2 c2F2 !segno!|]


